src/img/icons/calendar.svg

<svg fill="none" height="21" viewBox="0 0 18 21" width="18" xmlns="http://www.w3.org/2000/svg"><path d="m4 1.75c0-.66406.54688-1.25 1.25-1.25.66406 0 1.25.58594 1.25 1.25v1.25h5v-1.25c0-.66406.5469-1.25 1.25-1.25.6641 0 1.25.58594 1.25 1.25v1.25h1.875c1.0156 0 1.875.85938 1.875 1.875v1.875h-17.5v-1.875c0-1.01562.82031-1.875 1.875-1.875h1.875zm13.75 16.875c0 1.0547-.8594 1.875-1.875 1.875h-13.75c-1.05469 0-1.875-.8203-1.875-1.875v-10.625h17.5z" fill="#fff"/></svg>

<svg width="18" height="21" viewBox="0 0 18 21" fill="none" xmlns="http://www.w3.org/2000/svg">
<path d="M4 1.75C4 1.08594 4.54688 0.5 5.25 0.5C5.91406 0.5 6.5 1.08594 6.5 1.75V3H11.5V1.75C11.5 1.08594 12.0469 0.5 12.75 0.5C13.4141 0.5 14 1.08594 14 1.75V3H15.875C16.8906 3 17.75 3.85938 17.75 4.875V6.75H0.25V4.875C0.25 3.85938 1.07031 3 2.125 3H4V1.75ZM17.75 18.625C17.75 19.6797 16.8906 20.5 15.875 20.5H2.125C1.07031 20.5 0.25 19.6797 0.25 18.625V8H17.75V18.625Z" fill="white"/>
</svg>
